Newaita-dark/.places-manjaro/24/folder-templates.svg

<?xml version="1.0" encoding="UTF-8"?>
<svg xmlns="http://www.w3.org/2000/svg" xmlns:xlink="http://www.w3.org/1999/xlink" width="24pt" height="24pt" viewBox="0 0 24 24" version="1.1">
<defs>
<linearGradient id="linear0" gradientUnits="userSpaceOnUse" x1="254" y1="233.5" x2="254" y2="254.666672" gradientTransform="matrix(0.0468795,0,0,0.0468795,-0.0000028613,10.079089)">
<stop offset="0" style="stop-color:rgb(0%,0%,0%);stop-opacity:0.27451;"/>
<stop offset="1" style="stop-color:rgb(0%,0%,0%);stop-opacity:0;"/>
</linearGradient>
<radialGradient id="radial0" gradientUnits="userSpaceOnUse" cx="450.908936" cy="189.579361" fx="450.908936" fy="189.579361" r="21.166656" gradientTransform="matrix(0.000000130628,-0.0585994,-0.105479,-0.0000000761539,40.58641,47.696499)">
<stop offset="0" style="stop-color:rgb(0%,0%,0%);stop-opacity:0.313725;"/>
<stop offset="0.222222" style="stop-color:rgb(0%,0%,0%);stop-opacity:0.27451;"/>
<stop offset="1" style="stop-color:rgb(0%,0%,0%);stop-opacity:0;"/>
</radialGradient>
<radialGradient id="radial1" gradientUnits="userSpaceOnUse" cx="450.908936" cy="189.579361" fx="450.908936" fy="189.579361" r="21.166656" gradientTransform="matrix(-0.000000130628,0.0585994,0.105479,0.0000000761539,-16.771633,-5.645609)">
<stop offset="0" style="stop-color:rgb(0%,0%,0%);stop-opacity:0.313725;"/>
<stop offset="0.222222" style="stop-color:rgb(0%,0%,0%);stop-opacity:0.27451;"/>
<stop offset="1" style="stop-color:rgb(0%,0%,0%);stop-opacity:0;"/>
</radialGradient>
<radialGradient id="radial2" gradientUnits="userSpaceOnUse" cx="450.908936" cy="189.579361" fx="450.908936" fy="189.579361" r="21.166656" gradientTransform="matrix(-0.000000130628,-0.0585994,0.105479,-0.0000000761539,-16.771633,47.696499)">
<stop offset="0" style="stop-color:rgb(0%,0%,0%);stop-opacity:0.313725;"/>
<stop offset="0.222222" style="stop-color:rgb(0%,0%,0%);stop-opacity:0.27451;"/>
<stop offset="1" style="stop-color:rgb(0%,0%,0%);stop-opacity:0;"/>
</radialGradient>
<radialGradient id="radial3" gradientUnits="userSpaceOnUse" cx="450.908936" cy="189.579361" fx="450.908936" fy="189.579361" r="21.166656" gradientTransform="matrix(0.000000130628,0.0585994,-0.105479,0.0000000761539,40.586408,-5.64561)">
<stop offset="0" style="stop-color:rgb(0%,0%,0%);stop-opacity:0.313725;"/>
<stop offset="0.222222" style="stop-color:rgb(0%,0%,0%);stop-opacity:0.27451;"/>
<stop offset="1" style="stop-color:rgb(0%,0%,0%);stop-opacity:0;"/>
</radialGradient>
<linearGradient id="linear1" gradientUnits="userSpaceOnUse" x1="296.333344" y1="233.5" x2="296.333344" y2="-147.5" gradientTransform="matrix(0.0468795,0,0,0.0468795,0,10.079087)">
<stop offset="0" style="stop-color:rgb(25.882353%,25.882353%,25.882353%);stop-opacity:1;"/>
<stop offset="1" style="stop-color:rgb(38.039216%,38.039216%,38.039216%);stop-opacity:1;"/>
</linearGradient>
<linearGradient id="linear2" gradientUnits="userSpaceOnUse" x1="254" y1="-147.5" x2="254" y2="233.5" gradientTransform="matrix(0.0468795,0,0,0.0468795,0,10.079087)">
<stop offset="0" style="stop-color:rgb(30.196078%,71.372549%,67.45098%);stop-opacity:1;"/>
<stop offset="1" style="stop-color:rgb(14.901961%,65.098039%,60.392157%);stop-opacity:1;"/>
</linearGradient>
<linearGradient id="linear3" gradientUnits="userSpaceOnUse" x1="959.998779" y1="1729.447266" x2="959.998779" y2="289.447296" gradientTransform="matrix(0.264583,0,0,0.264583,0.0000197,-225.797546)">
<stop offset="0" style="stop-color:rgb(25.882353%,25.882353%,25.882353%);stop-opacity:1;"/>
<stop offset="1" style="stop-color:rgb(38.039216%,38.039216%,38.039216%);stop-opacity:1;"/>
</linearGradient>
</defs>
<g id="surface1">
<path style=" stroke:none;fill-rule:nonzero;fill:url(#linear0);" d="M 2.976562 21.027344 L 20.839844 21.027344 L 20.839844 22.019531 L 2.976562 22.019531 Z M 2.976562 21.027344 "/>
<path style=" stroke:none;fill-rule:nonzero;fill:url(#radial0);" d="M 20.839844 21.027344 L 22.824219 21.027344 L 22.824219 20.03125 L 20.839844 20.03125 Z M 20.839844 21.027344 "/>
<path style=" stroke:none;fill-rule:nonzero;fill:url(#radial1);" d="M 2.976562 21.027344 L 0.992188 21.027344 L 0.992188 22.019531 L 2.976562 22.019531 Z M 2.976562 21.027344 "/>
<path style=" stroke:none;fill-rule:nonzero;fill:url(#radial2);" d="M 2.976562 21.027344 L 0.992188 21.027344 L 0.992188 20.03125 L 2.976562 20.03125 Z M 2.976562 21.027344 "/>
<path style=" stroke:none;fill-rule:nonzero;fill:url(#radial3);" d="M 20.839844 21.027344 L 22.824219 21.027344 L 22.824219 22.019531 L 20.839844 22.019531 Z M 20.839844 21.027344 "/>
<path style=" stroke:none;fill-rule:nonzero;fill:url(#linear1);" d="M 5.457031 3.164062 L 21.582031 3.164062 C 22.128906 3.164062 22.574219 3.609375 22.574219 4.15625 L 22.574219 7.878906 C 22.574219 8.425781 22.128906 8.871094 21.582031 8.871094 L 5.457031 8.871094 C 4.910156 8.871094 4.464844 8.425781 4.464844 7.878906 L 4.464844 4.15625 C 4.464844 3.609375 4.910156 3.164062 5.457031 3.164062 Z M 5.457031 3.164062 "/>
<path style=" stroke:none;fill-rule:nonzero;fill:rgb(90.196079%,90.196079%,90.196079%);fill-opacity:0.588235;" d="M 5.457031 3.164062 C 4.90625 3.164062 4.464844 3.605469 4.464844 4.15625 L 4.464844 4.28125 C 4.464844 3.730469 4.90625 3.289062 5.457031 3.289062 L 21.582031 3.289062 C 22.132812 3.289062 22.574219 3.730469 22.574219 4.28125 L 22.574219 4.15625 C 22.574219 3.605469 22.132812 3.164062 21.582031 3.164062 Z M 5.457031 3.164062 "/>
<path style=" stroke:none;fill-rule:nonzero;fill:rgb(12.941177%,12.941177%,12.941177%);fill-opacity:1;" d="M 5.457031 3.09375 C 4.871094 3.09375 4.394531 3.570312 4.394531 4.15625 L 4.394531 7.878906 C 4.394531 8.464844 4.871094 8.941406 5.457031 8.941406 L 21.582031 8.941406 C 22.167969 8.941406 22.644531 8.464844 22.644531 7.878906 L 22.644531 4.15625 C 22.644531 3.570312 22.167969 3.09375 21.582031 3.09375 Z M 5.457031 3.234375 L 21.582031 3.234375 C 22.09375 3.234375 22.503906 3.644531 22.503906 4.15625 L 22.503906 7.878906 C 22.503906 8.390625 22.09375 8.800781 21.582031 8.800781 L 5.457031 8.800781 C 4.945312 8.800781 4.535156 8.390625 4.535156 7.878906 L 4.535156 4.15625 C 4.535156 3.644531 4.945312 3.234375 5.457031 3.234375 Z M 5.457031 3.234375 "/>
<path style=" stroke:none;fill-rule:nonzero;fill:url(#linear2);" d="M 1.984375 5.148438 C 1.433594 5.148438 0.992188 5.589844 0.992188 6.140625 L 0.992188 20.03125 C 0.992188 20.582031 1.433594 21.027344 1.984375 21.027344 L 21.832031 21.027344 C 22.378906 21.027344 22.824219 20.582031 22.824219 20.03125 L 22.824219 7.628906 L 9.425781 7.628906 C 8.878906 7.628906 8.433594 7.1875 8.433594 6.636719 L 8.433594 5.148438 Z M 1.984375 5.148438 "/>
<path style=" stroke:none;fill-rule:nonzero;fill:rgb(0%,0%,0%);fill-opacity:0.196078;" d="M 1.984375 21.027344 C 1.433594 21.027344 0.992188 20.582031 0.992188 20.03125 L 0.992188 19.910156 C 0.992188 20.457031 1.433594 20.902344 1.984375 20.902344 L 21.832031 20.902344 C 22.378906 20.902344 22.824219 20.457031 22.824219 19.910156 L 22.824219 20.03125 C 22.824219 20.582031 22.378906 21.027344 21.832031 21.027344 Z M 1.984375 21.027344 "/>
<path style=" stroke:none;fill-rule:nonzero;fill:rgb(90.196079%,90.196079%,90.196079%);fill-opacity:0.937255;" d="M 1.984375 5.148438 C 1.433594 5.148438 0.992188 5.589844 0.992188 6.140625 L 0.992188 6.265625 C 0.992188 5.714844 1.433594 5.273438 1.984375 5.273438 L 8.433594 5.273438 L 8.433594 5.148438 Z M 1.984375 5.148438 "/>
<path style=" stroke:none;fill-rule:nonzero;fill:rgb(90.196079%,90.196079%,90.196079%);fill-opacity:0.937255;" d="M 9.363281 7.691406 C 8.816406 7.691406 8.371094 7.25 8.371094 6.699219 L 8.371094 6.574219 C 8.371094 7.125 8.816406 7.570312 9.363281 7.566406 L 22.824219 7.566406 L 22.824219 7.691406 Z M 9.363281 7.691406 "/>
<path style=" stroke:none;fill-rule:nonzero;fill:rgb(12.941177%,12.941177%,12.941177%);fill-opacity:1;" d="M 1.984375 5.078125 C 1.398438 5.078125 0.921875 5.554688 0.921875 6.140625 L 0.921875 20.03125 C 0.921875 20.621094 1.398438 21.097656 1.984375 21.097656 L 21.832031 21.097656 C 22.417969 21.097656 22.894531 20.621094 22.894531 20.03125 L 22.894531 7.488281 L 9.425781 7.488281 C 8.914062 7.488281 8.503906 7.078125 8.503906 6.566406 L 8.503906 5.078125 Z M 1.984375 5.21875 L 8.363281 5.21875 L 8.363281 6.566406 C 8.363281 7.15625 8.839844 7.628906 9.425781 7.628906 L 22.753906 7.628906 L 22.753906 20.03125 C 22.753906 20.546875 22.34375 20.957031 21.832031 20.957031 L 1.984375 20.957031 C 1.472656 20.957031 1.0625 20.546875 1.0625 20.03125 L 1.0625 6.140625 C 1.0625 5.628906 1.472656 5.21875 1.984375 5.21875 Z M 1.984375 5.21875 "/>
<path style="fill-rule:nonzero;fill:url(#linear3);stroke-width:3;stroke-linecap:round;stroke-linejoin:miter;stroke:rgb(12.941177%,12.941177%,12.941177%);stroke-opacity:1;stroke-miterlimit:4;" d="M 190.48181 -10.1029 C 184.649034 -10.1029 179.899487 -5.436679 179.899487 0.479423 L 179.899487 148.631942 C 179.899487 148.798592 179.899487 148.965243 179.899487 149.131894 C 179.982813 149.548521 179.982813 149.881822 180.066138 150.215124 C 180.066138 150.548425 180.149463 150.965052 180.232789 151.298354 C 180.56609 152.464909 181.066042 153.548139 181.732645 154.548043 C 183.232502 156.797828 185.565613 158.464336 188.398675 158.964288 C 188.898628 159.130939 189.39858 159.130939 189.981858 159.214264 C 190.148508 159.214264 190.315159 159.214264 190.48181 159.214264 L 317.469683 159.214264 C 317.719659 159.214264 317.88631 159.214264 318.052961 159.214264 C 321.469301 159.047614 324.469015 157.214455 326.302173 154.548043 C 326.552149 154.131416 326.802125 153.714789 327.052101 153.214837 C 327.218752 152.881536 327.302078 152.548234 327.468728 152.298258 C 327.552054 151.964957 327.635379 151.631655 327.718704 151.298354 C 327.80203 150.965052 327.885355 150.548425 327.968681 150.215124 C 328.052006 149.881822 328.052006 149.548521 328.052006 149.131894 C 328.052006 148.965243 328.052006 148.798592 328.052006 148.631942 L 328.052006 0.479423 C 328.052006 -0.853783 327.885355 -2.020339 327.468728 -3.186894 C 327.302078 -3.520195 327.218752 -3.853497 327.052101 -4.103473 C 325.63557 -7.103186 322.885833 -9.269646 319.636143 -9.936249 C 319.469492 -9.936249 319.302841 -10.019575 319.136191 -10.019575 C 318.552913 -10.1029 318.052961 -10.1029 317.469683 -10.1029 Z M 206.396957 11.061746 L 301.637862 11.061746 C 304.55425 11.061746 306.88736 13.394856 306.88736 16.311244 L 306.88736 132.716795 C 306.88736 135.716508 304.55425 138.049619 301.637862 138.049619 L 206.396957 138.049619 C 203.480569 138.049619 201.064133 135.716508 201.064133 132.716795 L 201.064133 16.311244 C 201.064133 13.394856 203.480569 11.061746 206.396957 11.061746 Z M 206.396957 11.061746 " transform="matrix(0.0468795,0,0,0.0468795,0,10.079087)"/>
</g>
</svg>

<svg xmlns="http://www.w3.org/2000/svg" width="32" height="32" viewBox="0 0 24 24"><defs><linearGradient id="a" gradientUnits="userSpaceOnUse" x1="254" y1="233.5" x2="254" y2="254.667" gradientTransform="matrix(.04688 0 0 .04688 0 10.08)"><stop offset="0" stop-opacity=".275"/><stop offset="1" stop-opacity="0"/></linearGradient><radialGradient id="b" gradientUnits="userSpaceOnUse" cx="450.909" cy="189.579" fx="450.909" fy="189.579" r="21.167" gradientTransform="matrix(0 -.0586 -.10548 0 40.586 47.696)"><stop offset="0" stop-opacity=".314"/><stop offset=".222" stop-opacity=".275"/><stop offset="1" stop-opacity="0"/></radialGradient><radialGradient id="c" gradientUnits="userSpaceOnUse" cx="450.909" cy="189.579" fx="450.909" fy="189.579" r="21.167" gradientTransform="matrix(0 .0586 .10548 0 -16.772 -5.646)"><stop offset="0" stop-opacity=".314"/><stop offset=".222" stop-opacity=".275"/><stop offset="1" stop-opacity="0"/></radialGradient><radialGradient id="d" gradientUnits="userSpaceOnUse" cx="450.909" cy="189.579" fx="450.909" fy="189.579" r="21.167" gradientTransform="matrix(0 -.0586 .10548 0 -16.772 47.696)"><stop offset="0" stop-opacity=".314"/><stop offset=".222" stop-opacity=".275"/><stop offset="1" stop-opacity="0"/></radialGradient><radialGradient id="e" gradientUnits="userSpaceOnUse" cx="450.909" cy="189.579" fx="450.909" fy="189.579" r="21.167" gradientTransform="matrix(0 .0586 -.10548 0 40.586 -5.646)"><stop offset="0" stop-opacity=".314"/><stop offset=".222" stop-opacity=".275"/><stop offset="1" stop-opacity="0"/></radialGradient><linearGradient id="f" gradientUnits="userSpaceOnUse" x1="296.333" y1="233.5" x2="296.333" y2="-147.5" gradientTransform="matrix(.04688 0 0 .04688 0 10.08)"><stop offset="0" stop-color="#424242"/><stop offset="1" stop-color="#616161"/></linearGradient><linearGradient id="g" gradientUnits="userSpaceOnUse" x1="254" y1="-147.5" x2="254" y2="233.5" gradientTransform="matrix(.04688 0 0 .04688 0 10.08)"><stop offset="0" stop-color="#4db6ac"/><stop offset="1" stop-color="#26a69a"/></linearGradient><linearGradient id="h" gradientUnits="userSpaceOnUse" x1="959.999" y1="1729.447" x2="959.999" y2="289.447" gradientTransform="matrix(.26458 0 0 .26458 0 -225.798)"><stop offset="0" stop-color="#424242"/><stop offset="1" stop-color="#616161"/></linearGradient></defs><path d="M2.977 21.027H20.84v.993H2.977zm0 0" fill="url(#a)"/><path d="M20.84 21.027h1.984v-.996H20.84zm0 0" fill="url(#b)"/><path d="M2.977 21.027H.992v.993h1.985zm0 0" fill="url(#c)"/><path d="M2.977 21.027H.992v-.996h1.985zm0 0" fill="url(#d)"/><path d="M20.84 21.027h1.984v.993H20.84zm0 0" fill="url(#e)"/><path d="M5.457 3.164h16.125c.547 0 .992.445.992.992V7.88a.994.994 0 0 1-.992.992H5.457a.994.994 0 0 1-.992-.992V4.156c0-.547.445-.992.992-.992zm0 0" fill="url(#f)"/><path d="M5.457 3.164a.989.989 0 0 0-.992.992v.125c0-.55.441-.992.992-.992h16.125c.55 0 .992.441.992.992v-.125a.989.989 0 0 0-.992-.992zm0 0" fill="#e6e6e6" fill-opacity=".588"/><path d="M5.457 3.094c-.586 0-1.062.476-1.062 1.062V7.88c0 .586.476 1.062 1.062 1.062h16.125c.586 0 1.063-.476 1.063-1.062V4.156c0-.586-.477-1.062-1.063-1.062zm0 .14h16.125c.512 0 .922.41.922.922V7.88c0 .512-.41.922-.922.922H5.457a.919.919 0 0 1-.922-.922V4.156c0-.511.41-.922.922-.922zm0 0" fill="#212121"/><path d="M1.984 5.148a.989.989 0 0 0-.992.993v13.89c0 .551.442.996.992.996h19.848a.994.994 0 0 0 .992-.996V7.63H9.426a.991.991 0 0 1-.992-.992V5.148zm0 0" fill="url(#g)"/><path d="M1.984 21.027a.992.992 0 0 1-.992-.996v-.12c0 .546.442.991.992.991h19.848a.994.994 0 0 0 .992-.992v.121c0 .551-.445.996-.992.996zm0 0" fill-opacity=".196"/><path d="M1.984 5.148a.989.989 0 0 0-.992.993v.125c0-.551.442-.993.992-.993h6.45v-.125zm0 0M9.363 7.691a.991.991 0 0 1-.992-.992v-.125c0 .551.445.996.992.992h13.461v.125zm0 0" fill="#e6e6e6" fill-opacity=".937"/><path d="M1.984 5.078c-.586 0-1.062.477-1.062 1.063v13.89c0 .59.476 1.067 1.062 1.067h19.848c.586 0 1.063-.477 1.063-1.067V7.488H9.425a.919.919 0 0 1-.921-.922V5.078zm0 .14h6.38v1.348c0 .59.476 1.063 1.062 1.063h13.328V20.03a.92.92 0 0 1-.922.926H1.984a.92.92 0 0 1-.921-.926V6.141c0-.512.41-.922.921-.922zm0 0" fill="#212121"/><path d="M190.482-10.103A10.544 10.544 0 0 0 179.899.48v148.653c.084.417.084.75.167 1.083 0 .333.083.75.167 1.083.333 1.167.833 2.25 1.5 3.25 1.5 2.25 3.833 3.916 6.666 4.416.5.167 1 .167 1.583.25h128.071c3.416-.166 6.416-2 8.25-4.666.25-.417.5-.833.75-1.333.166-.333.25-.667.416-.917l.25-1c.083-.333.166-.75.25-1.083.083-.333.083-.666.083-1.083V.479c0-1.333-.167-2.5-.583-3.666-.167-.333-.25-.666-.417-.916a10.557 10.557 0 0 0-7.416-5.833c-.167 0-.333-.084-.5-.084-.583-.083-1.083-.083-1.666-.083zm15.915 21.165h95.24a5.228 5.228 0 0 1 5.25 5.25v116.405c0 3-2.333 5.333-5.25 5.333h-95.24a5.316 5.316 0 0 1-5.333-5.333V16.31c0-2.916 2.417-5.25 5.333-5.25zm0 0" transform="matrix(.04688 0 0 .04688 0 10.08)" fill="url(#h)" stroke-width="3" stroke-linecap="round" stroke="#212121"/></svg>
